suite-common/icons/assets/icons/osMac.svg

<svg xmlns="http://www.w3.org/2000/svg" fill-rule="evenodd" stroke-linejoin="round" stroke-miterlimit="2" clip-rule="evenodd" viewBox="0 0 24 24">
  <path d="M15.506 1.065c-.833.179-1.803.75-2.569 1.514-.649.646-.917 1.114-1.238 2.161-.131.428-.147.526-.145.902.001.232.02.471.043.53l.041.108h.486c.44 0 .521-.012.851-.125.77-.263 1.235-.561 1.784-1.142.466-.491.7-.815.922-1.273.329-.677.447-1.131.516-1.98.046-.571.035-.653-.102-.715-.125-.057-.248-.053-.589.02m-.351 5.218c-.512.075-1.158.264-2.355.688l-.9.319-.3-.087a32 32 0 0 1-1.08-.361c-1.601-.562-2.115-.632-3.116-.426-.908.188-1.327.357-2.021.815-.407.269-1.071.952-1.392 1.43-.481.719-.96 1.859-1.127 2.679-.14.689-.18 1.647-.103 2.426.138 1.383.52 2.864 1.096 4.245.418 1.004.574 1.279 1.304 2.31 1.094 1.544 1.735 2.177 2.558 2.527.283.12.33.128.781.127.579 0 .726-.033 1.6-.357.999-.37 1.223-.423 1.885-.447.7-.026 1.043.04 2.056.392 1.304.453 1.804.512 2.446.289.917-.318 1.896-1.284 2.893-2.852.557-.876 1.226-2.299 1.286-2.738.029-.212-.003-.245-.6-.612-.965-.594-1.669-1.482-2.051-2.59-.107-.309-.111-.355-.126-1.3l-.016-.98.148-.46c.173-.54.359-.958.544-1.227.209-.305.778-.872 1.183-1.181.408-.311.437-.37.282-.577A5.36 5.36 0 0 0 18.16 6.8c-.717-.36-1.111-.463-2-.521-.654-.042-.693-.042-1.005.004"/>
</svg>

<svg xmlns="http://www.w3.org/2000/svg" fill-rule="evenodd" stroke-linejoin="round" stroke-miterlimit="2" clip-rule="evenodd" viewBox="0 0 24 24"><path d="M15.506 1.065 C 14.673 1.244,13.703 1.815,12.937 2.579 C 12.288 3.225,12.020 3.693,11.699 4.740 C 11.568 5.168,11.552 5.266,11.554 5.642 C 11.555 5.874,11.574 6.113,11.597 6.172 L 11.638 6.280 12.124 6.280 C 12.564 6.280,12.645 6.268,12.975 6.155 C 13.745 5.892,14.210 5.594,14.759 5.013 C 15.225 4.522,15.459 4.198,15.681 3.740 C 16.010 3.063,16.128 2.609,16.197 1.760 C 16.243 1.189,16.232 1.107,16.095 1.045 C 15.970 0.988,15.847 0.992,15.506 1.065 M15.155 6.283 C 14.643 6.358,13.997 6.547,12.800 6.971 L 11.900 7.290 11.600 7.203 C 11.435 7.155,10.949 6.992,10.520 6.842 C 8.919 6.280,8.405 6.210,7.404 6.416 C 6.496 6.604,6.077 6.773,5.383 7.231 C 4.976 7.500,4.312 8.183,3.991 8.661 C 3.510 9.380,3.031 10.520,2.864 11.340 C 2.724 12.029,2.684 12.987,2.761 13.766 C 2.899 15.149,3.281 16.630,3.857 18.011 C 4.275 19.015,4.431 19.290,5.161 20.321 C 6.255 21.865,6.896 22.498,7.719 22.848 C 8.002 22.968,8.049 22.976,8.500 22.975 C 9.079 22.975,9.226 22.942,10.100 22.618 C 11.099 22.248,11.323 22.195,11.985 22.171 C 12.685 22.145,13.028 22.211,14.041 22.563 C 15.345 23.016,15.845 23.075,16.487 22.852 C 17.404 22.534,18.383 21.568,19.380 20.000 C 19.937 19.124,20.606 17.701,20.666 17.262 C 20.695 17.050,20.663 17.017,20.066 16.650 C 19.101 16.056,18.397 15.168,18.015 14.060 C 17.908 13.751,17.904 13.705,17.889 12.760 L 17.873 11.780 18.021 11.320 C 18.194 10.780,18.380 10.362,18.565 10.093 C 18.774 9.788,19.343 9.221,19.748 8.912 C 20.156 8.601,20.185 8.542,20.030 8.335 C 19.566 7.716,18.910 7.177,18.160 6.800 C 17.443 6.440,17.049 6.337,16.160 6.279 C 15.506 6.237,15.467 6.237,15.155 6.283 " stroke="none" fill-rule="evenodd" fill="black"></path></svg>
